X:1
T:3 Lieder, Op.8
T:Schmetterling
T:Frau Caroline von Hoesslin (geb: v. Eichthal) achtungsvoll gewidmet 
T:1. Schmetterling
T:Josephine Lang
T:(Unknown)
T:3 Lieder, Op.8
T:Creative Commons copyright waiver (CC0 1.0 Universal)
T:Creative Commons copyright waiver (CC0 1.0 Universal)
T:Creative Commons copyright waiver (CC0 1.0 Universal)
C:Josephine Lang
Z:unknown
Z:Creative Commons copyright waiver (CC0 1.0 Universal)
%%score ( 1 2 )
L:1/8
Q:1/4=116
M:2/4
K:F
V:1 treble nm="Singstimme\nVoice"
V:2 treble 
V:1
"^Allegretto" z4 | z4 | z4 | z4 | z4 | z4 | z4 | z4 |: A2 c2 | (cF) F2 | B3 B | B2 z2 | A2 B2 | %13
w: ||||||||Früh- lings-|bo- * te!|Schmet- ter-|ling!|Sanft wie|
w: ||||||||Früh- lings-|bo- * te!|Schmet- ter-|ling!|Ist dein|
 c2 d2 | d3 c | (G2 C2) | A2 c2 | B2 d2 | c3 f | f2 e2 | e3 d | ^c2 B2 | A3 E | F4 | A3 A | d4- | %26
w: Ze- phirs|lin- des|We- hen,|schmei- chelnd|wie der|Lie- be|Fle- hen|flat- terst|du mit|leich- ten|Sinn|durch die|Blu-|
w: gan- zes|Le- ben|Scherz, *|fes- selt|nichts dein|klei- nes|Herz, *|o so|nen- ne|nicht die||dei- ner|Flat-|
 (dB) (AG) | c4 | d4 | A4- | A3 G | F4 | z4 | z4 | z4 | z4 | z4 | z4 | z4 | z4 | A2 c2 | (cF) F2 | %42
w: * * men *|Blu-|men-|welt|_ da-|hin!|||||||||Früh- lings-|bo- * te!|
w: * * ter- *|see-|le|Lie-||be!|||||||||Früh- lings-|bo- * te!|
 B3 B | B2 z2 | A2 B2 | c2 d2 | d3 c | G2 C2 | A2 c2 | B3 d | c2 f2 | f2 e2 | e2 d2 | ^c2 B2 | %54
w: Schmet- ter|ling!|Mit des|Schmei- chelns|süs- sem|Ko- sen,|gau- kelst|du um|jun- ge|Ro- sen|wen- dest|dann mit|
w: Schmet- ter-|ling!|Bun- ter|Wech- sel|scheint dein|Ziel, *|a- ber|grau- sam|ist das|Spiel *|Ach! ein|Schmet- ter-|
 A3 E | F2 z2 | G3 G | A2 E2 | G3 G | A4 | A3 A | d4- | (dB) (AG) | c4 | d4 | A4- | A3 G | F4 | %68
w: Män- ner-|sinn|dich zu|an- dern|Blu- men|hin,|dich zu|an-|* * dern *|an-|dern|Blu-|* men|hin!|
w: ling, wie|du|nahm mir|tän- delnd|mei- ne|Ruh,|nahm mir|tän-|* * delnd *|tän-|delnd|mei-|* ne|Ruh!|
 z4 | z4 | z4 | z4 | z4 | z4 | z4 | z4 | z4 | z4 | z4 | z4 | z4 | z4 | z4 :| z4 | z4 |] %85
w: |||||||||||||||||
w: |||||||||||||||||
V:2
 x4 | x4 | x4 | x4 | x4 | x4 | x4 | x4 |: x4 | x4 | x4 | x4 | x4 | x4 | x4 | x4 | x4 | x4 | x4 | %19
w: |||||||||||||||||||
w: |||||||||||||||||||
 x4 | x4 | x4 | x4 | G2 F2 | x4 | x4 | x4 | x4 | x4 | x4 | x4 | x4 | x4 | x4 | x4 | x4 | x4 | x4 | %38
w: |||||||||||||||||||
w: ||||Trie- be|||||||||||||||
 x4 | x4 | x4 | x4 | x4 | x4 | x4 | x4 | x4 | x4 | x4 | x4 | x4 | x4 | x4 | x4 | x4 | x4 | x4 | %57
w: |||||||||||||||||||
w: |||||||||||||||||||
 x4 | x4 | x4 | x4 | x4 | x4 | x4 | x4 | x4 | x4 | x4 | x4 | x4 | x4 | x4 | x4 | x4 | x4 | x4 | %76
w: |||||||||||||||||||
w: |||||||||||||||||||
 x4 | x4 | x4 | x4 | x4 | x4 | x4 :| x4 | x4 |] %85
w: |||||||||
w: |||||||||

